public/img/collectData-01.svg

<svg id="svgcontent" xmlns:xlink="http://www.w3.org/1999/xlink" x="0px" y="0px" width="500" height="500" viewBox="0 0 500 500" overflow="visible">
    <g style="pointer-events:all">
        <title style="pointer-events:inherit">Layer 1</title>
        <g style="pointer-events:inherit" id="svg_1">
            <path fill="none" stroke="#A7C8EB" stroke-width="2" stroke-miterlimit="10" stroke-dasharray="3.0186,3.0186" d="M359.49701,273.18799C359.49701,315.10999 325.51102,349.09698 283.59702,349.09698C241.66402,349.09698 207.687,315.10999 207.687,273.18799C207.687,231.28099 241.66499,197.29298 283.59702,197.29298C325.51099,197.29401 359.49701,231.28101 359.49701,273.18799z" style="pointer-events:inherit" id="svg_2"></path>
        </g>
        <g style="pointer-events:inherit" id="svg_3">
            <line fill="none" stroke="#153247" stroke-width="7" stroke-miterlimit="10" x1="282.347" y1="268.654" x2="256.094" y2="101.02" style="pointer-events:inherit" id="svg_4"></line>
            <path fill="#2D619B" d="M279.431,98.756C279.30701,112.517 267.883,123.562 253.903,123.436C239.93201,123.309 228.702,112.06 228.827,98.297C228.951,84.539 240.383,73.48 254.354,73.606C268.33401,73.731 279.55499,84.995 279.431,98.756z" style="pointer-events:inherit" id="svg_5"></path>
        </g>
        <g style="pointer-events:inherit" id="svg_6">
            <line fill="none" stroke="#153247" stroke-width="7" stroke-miterlimit="10" x1="285.071" y1="275.162" x2="426.84" y2="397.541" style="pointer-events:inherit" id="svg_7"></line>
            <path fill="#2D619B" d="M409.15399,415.901C399.40298,404.24799 400.94299,386.909 412.59299,377.15799C424.26199,367.39099 441.604,368.94699 451.336,380.59698C461.103,392.25 459.564,409.608 447.91199,419.341C436.24399,429.10699 418.923,427.552 409.15399,415.901z" style="pointer-events:inherit" id="svg_8"></path>
        </g>
        <g style="pointer-events:inherit" id="svg_9">
            <line fill="none" stroke="#153247" stroke-width="7" stroke-miterlimit="10" x1="285.477" y1="279.312" x2="188.485" y2="356.966" style="pointer-events:inherit" id="svg_10"></line>
            <path fill="#2D619B" d="M178.64799,343.20599C187.43098,338.26099 198.554,341.37198 203.50699,350.13898C208.45999,358.93799 205.34799,370.05399 196.56599,374.99698C187.79298,379.95898 176.64999,376.86499 171.71599,368.082C166.745,359.28201 169.86501,348.16699 178.64799,343.20599z" style="pointer-events:inherit" id="svg_11"></path>
        </g>
        <g style="pointer-events:inherit" id="svg_12">
            <line fill="none" stroke="#153247" stroke-width="7" stroke-miterlimit="10" x1="267.048" y1="270.389" x2="58.559" y2="150.983" style="pointer-events:inherit" id="svg_13"></line>
            <path fill="#2D619B" d="M102.764,153.87C101.475,173.54498 84.482,188.44501 64.808,187.14999C45.153,185.85199 30.259,168.87498 31.537,149.203C32.835,129.52901 49.836,114.644 69.484,115.924C89.149,117.221 104.06,134.19501 102.764,153.87z" style="pointer-events:inherit" id="svg_14"></path>
        </g>
        <g style="pointer-events:inherit" id="svg_15">
            <line fill="none" stroke="#59570E" stroke-width="4" stroke-miterlimit="10" x1="289.014" y1="301.335" x2="293.436" y2="361.801" style="pointer-events:inherit" id="svg_16"></line>
            <path fill="#2D619B" d="M285.18399,361.95401C285.62198,357.056 289.94901,353.44101 294.84299,353.87302C299.75,354.31302 303.36099,358.63702 302.92099,363.534C302.491,368.43301 298.168,372.06 293.272,371.617C288.35901,371.18399 284.75201,366.85699 285.18399,361.95401z" style="pointer-events:inherit" id="svg_17"></path>
        </g>
        <g style="pointer-events:inherit" id="svg_18">
            <line fill="none" stroke="#153247" stroke-width="4" stroke-miterlimit="10" x1="303.343" y1="271.327" x2="419.887" y2="190.812" style="pointer-events:inherit" id="svg_19"></line>
            <path fill="#9FE0CC" d="M429.97,207.25C419.58401,212.16701 407.181,207.733 402.254,197.366C397.328,186.961 401.76199,174.56799 412.146,169.653C422.52301,164.717 434.948,169.129 439.854,179.51401C444.797,189.92101 440.35501,202.312 429.97,207.25z" style="pointer-events:inherit" id="svg_20"></path>
        </g>
        <path fill="#2D619B" d="M330.11301,275.00601C330.11301,299.67599 310.13,319.66 285.46002,319.66C260.79901,319.66 240.79601,299.67599 240.79601,275.00601S260.798,230.31702 285.46002,230.31702C310.13,230.31599 330.11301,250.336 330.11301,275.00601z" style="pointer-events:inherit" id="svg_21"></path>
        <path fill="#F8DB7D" d="M301.83499,209.62399C302.68198,207.52998 305.065,206.51999 307.15799,207.36398C309.255,208.213 310.263,210.59399 309.41599,212.687C308.57199,214.78299 306.189,215.79799 304.09698,214.94899C301.99701,214.103 300.98999,211.72099 301.83499,209.62399z" style="pointer-events:inherit" id="svg_22"></path>
        <path fill="#F8DB7D" d="M308.63101,127.9C310.87,122.367 317.168,119.699 322.70001,121.928C328.24301,124.17 330.90802,130.46899 328.668,135.99699C326.43802,141.539 320.14001,144.22 314.60901,141.97501C309.05801,139.74001 306.39801,133.44299 308.63101,127.9z" style="pointer-events:inherit" id="svg_23"></path>
        <path fill="#F8DB7D" d="M286.40799,154.817C287.19901,152.86099 289.427,151.916 291.383,152.707C293.34399,153.49899 294.284,155.726 293.49298,157.68201C292.702,159.64 290.47598,160.586 288.522,159.79401C286.56,159.004 285.61899,156.776 286.40799,154.817z" style="pointer-events:inherit" id="svg_24"></path>
        <path fill="#F8DB7D" d="M157.092,321.82199C157.411,318.26099 160.554,315.63599 164.11,315.94901C167.67599,316.26898 170.3,319.41098 169.981,322.96899C169.668,326.53 166.528,329.164 162.97,328.84399C159.399,328.52701 156.778,325.38501 157.092,321.82199z" style="pointer-events:inherit" id="svg_25"></path>
        <path fill="#F8DB7D" d="M131.183,175.36C131.41901,172.714 133.754,170.763 136.397,170.99699C139.04601,171.23399 140.996,173.56799 140.758,176.21201C140.526,178.858 138.19299,180.815 135.55,180.576C132.897,180.342 130.95,178.007 131.183,175.36z" style="pointer-events:inherit" id="svg_26"></path>
        <path fill="#F8DB7D" d="M422.21899,337.82401C426.51398,336.56201 431.01599,339.021 432.28198,343.31C433.54599,347.61301 431.08798,352.11401 426.79498,353.371C422.5,354.642 417.98898,352.189 416.733,347.89401C415.461,343.59 417.922,339.09399 422.21899,337.82401z" style="pointer-events:inherit" id="svg_27"></path>
        <path fill="#F8DB7D" d="M328.61301,343.92999C331.45801,343.09198 334.44601,344.724 335.28201,347.56598C336.12201,350.41998 334.48901,353.39999 331.64301,354.23499C328.797,355.073 325.80902,353.44998 324.978,350.60498C324.134,347.754 325.767,344.771 328.61301,343.92999z" style="pointer-events:inherit" id="svg_28"></path>
        <path fill="#F8DB7D" d="M165.94299,232.373C166.78999,230.278 169.174,229.269 171.26599,230.11301C173.36299,230.96201 174.37199,233.343 173.52399,235.436C172.67999,237.53101 170.297,238.54601 168.20499,237.698C166.106,236.85201 165.099,234.47 165.94299,232.373z" style="pointer-events:inherit" id="svg_29"></path>
    </g>
</svg>

<?xml version="1.0" encoding="utf-8"?>
<!-- Generator: Adobe Illustrator 16.0.0, SVG Export Plug-In . SVG Version: 6.00 Build 0)  -->
<!DOCTYPE svg PUBLIC "-//W3C//DTD SVG 1.1//EN" "http://www.w3.org/Graphics/SVG/1.1/DTD/svg11.dtd">
<svg version="1.1" id="Layer_1" xmlns="http://www.w3.org/2000/svg" xmlns:xlink="http://www.w3.org/1999/xlink" x="0px" y="0px"
	 width="500px" height="500px" viewBox="0 0 500 500" enable-background="new 0 0 500 500" xml:space="preserve">
<g>
	<path fill="none" stroke="#A7C8EB" stroke-width="2" stroke-miterlimit="10" stroke-dasharray="3.0186,3.0186" d="M359.497,273.188
		c0,41.922-33.986,75.909-75.9,75.909c-41.933,0-75.91-33.987-75.91-75.909c0-41.907,33.978-75.895,75.91-75.895
		C325.511,197.294,359.497,231.281,359.497,273.188z"/>
</g>
<g>
	<line fill="none" stroke="#153247" stroke-width="7" stroke-miterlimit="10" x1="282.347" y1="268.654" x2="256.094" y2="101.02"/>
	<path fill="#2D619B" d="M279.431,98.756c-0.124,13.761-11.548,24.806-25.528,24.68c-13.971-0.127-25.201-11.376-25.076-25.139
		c0.124-13.758,11.556-24.817,25.527-24.691C268.334,73.731,279.555,84.995,279.431,98.756z"/>
</g>
<g>
	<line fill="none" stroke="#153247" stroke-width="7" stroke-miterlimit="10" x1="285.071" y1="275.162" x2="426.84" y2="397.541"/>
	<path fill="#2D619B" d="M409.154,415.901c-9.751-11.653-8.211-28.992,3.439-38.743c11.669-9.767,29.011-8.211,38.743,3.439
		c9.767,11.653,8.228,29.011-3.424,38.744C436.244,429.107,418.923,427.552,409.154,415.901z"/>
</g>
<g>
	
		<line fill="none" stroke="#153247" stroke-width="7" stroke-miterlimit="10" x1="285.477" y1="279.312" x2="188.485" y2="356.966"/>
	<path fill="#2D619B" d="M178.648,343.206c8.783-4.945,19.906-1.834,24.859,6.933c4.953,8.799,1.841,19.915-6.941,24.858
		c-8.773,4.962-19.916,1.868-24.85-6.915C166.745,359.282,169.865,348.167,178.648,343.206z"/>
</g>
<g>
	<line fill="none" stroke="#153247" stroke-width="7" stroke-miterlimit="10" x1="267.048" y1="270.389" x2="58.559" y2="150.983"/>
	<path fill="#2D619B" d="M102.764,153.87c-1.289,19.675-18.282,34.575-37.956,33.28c-19.655-1.298-34.549-18.275-33.271-37.947
		c1.298-19.674,18.299-34.559,37.947-33.279C89.149,117.221,104.06,134.195,102.764,153.87z"/>
</g>
<g>
	
		<line fill="none" stroke="#59570E" stroke-width="4" stroke-miterlimit="10" x1="289.014" y1="301.335" x2="293.436" y2="361.801"/>
	<path fill="#2D619B" d="M285.184,361.954c0.438-4.898,4.765-8.513,9.659-8.081c4.907,0.44,8.518,4.764,8.078,9.661
		c-0.43,4.899-4.753,8.526-9.649,8.083C288.359,371.184,284.752,366.857,285.184,361.954z"/>
</g>
<g>
	
		<line fill="none" stroke="#153247" stroke-width="4" stroke-miterlimit="10" x1="303.343" y1="271.327" x2="419.887" y2="190.812"/>
	<path fill="#9FE0CC" d="M429.97,207.25c-10.386,4.917-22.789,0.483-27.716-9.884c-4.926-10.405-0.492-22.798,9.892-27.713
		c10.377-4.936,22.802-0.524,27.708,9.861C444.797,189.921,440.355,202.312,429.97,207.25z"/>
</g>
<path fill="#2D619B" d="M330.113,275.006c0,24.67-19.983,44.654-44.653,44.654c-24.661,0-44.664-19.984-44.664-44.654
	s20.002-44.689,44.664-44.689C310.13,230.316,330.113,250.336,330.113,275.006z"/>
<path fill="#F8DB7D" d="M301.835,209.624c0.847-2.094,3.23-3.104,5.323-2.26c2.097,0.849,3.105,3.23,2.258,5.323
	c-0.844,2.096-3.227,3.111-5.319,2.262C301.997,214.103,300.99,211.721,301.835,209.624z"/>
<path fill="#F8DB7D" d="M308.631,127.9c2.239-5.533,8.537-8.201,14.069-5.972c5.543,2.242,8.208,8.541,5.968,14.069
	c-2.23,5.542-8.528,8.223-14.059,5.978C309.058,139.74,306.398,133.443,308.631,127.9z"/>
<path fill="#F8DB7D" d="M286.408,154.817c0.791-1.956,3.019-2.901,4.975-2.11c1.961,0.792,2.901,3.019,2.11,4.975
	c-0.791,1.958-3.017,2.904-4.971,2.112C286.56,159.004,285.619,156.776,286.408,154.817z"/>
<path fill="#F8DB7D" d="M157.092,321.822c0.319-3.561,3.462-6.186,7.018-5.873c3.566,0.32,6.19,3.462,5.871,7.02
	c-0.313,3.561-3.453,6.195-7.011,5.875C159.399,328.527,156.778,325.385,157.092,321.822z"/>
<path fill="#F8DB7D" d="M131.183,175.36c0.236-2.646,2.571-4.597,5.214-4.363c2.649,0.237,4.599,2.571,4.361,5.215
	c-0.232,2.646-2.565,4.603-5.208,4.364C132.897,180.342,130.95,178.007,131.183,175.36z"/>
<path fill="#F8DB7D" d="M422.219,337.824c4.295-1.262,8.797,1.197,10.063,5.486c1.264,4.303-1.194,8.804-5.487,10.061
	c-4.295,1.271-8.806-1.182-10.062-5.477C415.461,343.59,417.922,339.094,422.219,337.824z"/>
<path fill="#F8DB7D" d="M328.613,343.93c2.845-0.838,5.833,0.794,6.669,3.636c0.84,2.854-0.793,5.834-3.639,6.669
	c-2.846,0.838-5.834-0.785-6.665-3.63C324.134,347.754,325.767,344.771,328.613,343.93z"/>
<path fill="#F8DB7D" d="M165.943,232.373c0.847-2.095,3.231-3.104,5.323-2.26c2.097,0.849,3.106,3.23,2.258,5.323
	c-0.844,2.095-3.227,3.11-5.319,2.262C166.106,236.852,165.099,234.47,165.943,232.373z"/>
</svg>
